X: 1
T:Polka
R:Polka
M:C
O:France
K:G
\vskip 6pt
dedc BcBA|G2G2G2AB\
|1c2A2A3B|cdcBA4:|2c2AGF2A2|G8||\
A2ABc2A2|B2e2d4|A2ABc2A2|B2e2d4|\
g2d2e2g2|d3ed2c2|B3cB2A2|G8||
